icon-themes/sifr_svg/cmd/lc_wraptext.svg

<svg viewBox="0 0 24 24" xmlns="http://www.w3.org/2000/svg"><path d="m2 4v2h20v-2zm0 5v2h16v-2zm17 4v2c1.1 0 2 .9 2 2s-.9 2-2 2h-.5625l.28125-.28125c.18125-.18817.28125-.45345.28125-.71875v-1h-1c-.26531 0-.53058.1-.7.3l-2 2-.3.2625v.875l.3.2625 2 2c.16943.2.43471.3.7.3h1v-1c0-.26531-.1-.5-.3-.7l-.2625-.3h.5625c2.2 0 4-1.8 4-4s-1.8-4-4-4zm-17 1v2h14v-2zm0 5v2h11v-2z" fill="#555753"/></svg>

<svg xmlns="http://www.w3.org/2000/svg" viewBox="0 0 24 24">
  <path
     style="fill:#555753"
     d="M 2 4 L 2 6 L 22 6 L 22 4 L 2 4 z M 2 9 L 2 11 L 18 11 L 18 9 L 2 9 z M 19 13 L 19 15 C 20.1 15 21 15.9 21 17 C 21 18.1 20.1 19 19 19 L 18.4375 19 L 18.71875 18.71875 C 18.9 18.53058 19 18.2653 19 18 L 19 17 L 18 17 C 17.73469 17 17.46942 17.1 17.3 17.3 L 15.3 19.3 L 15 19.5625 L 15 20.4375 L 15.3 20.7 L 17.3 22.7 C 17.46943 22.9 17.73471 23 18 23 L 19 23 L 19 22 C 19 21.73469 18.9 21.5 18.7 21.3 L 18.4375 21 L 19 21 C 21.2 21 23 19.2 23 17 C 23 14.8 21.2 13 19 13 z M 2 14 L 2 16 L 16 16 L 16 14 L 2 14 z M 2 19 L 2 21 L 13 21 L 13 19 L 2 19 z "
     />
</svg>
